common/assets/images/onboarding/slide-07.svg

<svg viewBox="0 0 529.6 676.48" xmlns="http://www.w3.org/2000/svg"><circle cx="237.29" cy="228.19" fill="#ffe9c4" r="143.06"/><path d="m237.29 205.18c57.75 0 109.85 24.7 132.09 78a143.06 143.06 0 1 0 -264.17 0c22.24-53.3 74.33-78.01 132.08-78z" fill="#290100"/><path d="m347.33 316.23h-59.33a39.66 39.66 0 0 1 -39.66-39.66v-26.37h99z" fill="#020047"/><path d="m296.44 250.2-44 44a39.82 39.82 0 0 0 13 15l59-59z" fill="#8e9aa9" opacity=".25"/><path d="m127.25 316.23h59.38a39.66 39.66 0 0 0 39.66-39.66v-26.37h-99z" fill="#020047"/><path d="m169.89 250.21-42.64 42.64v23.38h1.83l66.03-66.02z" fill="#8e9aa9" opacity=".25"/><path d="m237.29 19.11c-77 11-187.08 66-187.08 198.08v440.18h374.16v-440.18c0-132.05-110.05-187.07-187.08-198.08zm-55 374.15s-55-66-55-132c0-55 55-99 110-99s110 44 110 99c0 66-55 132-55 132z" fill="#79808a"/><circle cx="182.27" cy="470.29" fill="#0074bf" r="23.53"/><circle cx="292.31" cy="470.29" fill="#db6b5e" r="23.53"/><path d="m83.23 349.24c0-132.69 60.22-251.29 154.82-330l-.76-.11c-77 11-187.08 66-187.08 198.08v440.16h163.49a427.87 427.87 0 0 1 -130.47-308.13z" fill="#6b737f"/><path d="m114.87 613.35h-77a20.63 20.63 0 0 1 -20.67-20.59v-38.56a20.63 20.63 0 0 1 20.63-20.63h77a20.63 20.63 0 0 1 20.67 20.59v38.56a20.63 20.63 0 0 1 -20.63 20.63z" fill="#ffe9c4"/><path d="m17.2 580.51v12.21a20.63 20.63 0 0 0 20.63 20.63h77a20.63 20.63 0 0 0 20.63-20.63v-12.21z" fill="#ffc702" opacity=".5"/><path d="m512.4 657.37h-264.1v-198.08a11 11 0 0 1 11-11h242.1a11 11 0 0 1 11 11z" fill="#ff2433"/><path d="m292.31 448.28h-33a11 11 0 0 0 -11 11v198.09h33v-198.08a11 11 0 0 1 11-11z" fill="#bf1b26" opacity=".67"/><circle cx="380.35" cy="602.35" fill="#ff2433" r="23.53"/><path d="m248.3 657.37h-187.08a11 11 0 0 1 -11-11v-33h198.08z" fill="#0074bf"/><path d="m380.35 537a64.91 64.91 0 0 0 -46.2 19.14 10.32 10.32 0 0 0 14.59 14.59 44.7 44.7 0 0 1 63.22 0 10.32 10.32 0 1 0 15-14.22l-.37-.37a64.89 64.89 0 0 0 -46.24-19.14z"/><g fill="#510200"><path d="m276.57 172s-47.24-1.4-64.15 22.16-20.52 34-20.52 34 59-33.82 80.08-36 41-3.83 41-3.83z"/><path d="m230.76 155.62s-44.63 15.55-52 43.59-7 39.09-7 39.09 47.63-46.89 66.53-56.4 37.22-19.09 37.22-19.09z"/><path d="m215.68 160.58s-45.68 11.95-55.32 39.32-10.13 38.41-10.13 38.41 51.21-42.95 70.81-50.92 38.62-16.07 38.62-16.07z"/><path d="m194.07 172s-45.73 11.95-55.32 39.31-10.13 38.41-10.13 38.41 51.21-42.95 70.81-50.92 38.62-16.07 38.62-16.07z"/></g><path d="m501.4 438h-66.72v-79.13a10.32 10.32 0 1 0 -20.63-.64q0 .32 0 .64v24.07h-101.22c16.93-24.62 44.82-72.65 44.82-121.74 0-29.06-13.48-56.74-38-77.95-23-20-53.07-31.41-82.41-31.41s-59.38 11.45-82.41 31.41c-24.47 21.21-37.95 48.89-37.95 77.95 0 49.09 27.89 97.11 44.82 121.74h-101.17v-165.75c0-119.19 94.88-175.45 176.76-187.65 81.88 12.2 176.71 68.46 176.71 187.65v90.33a10.32 10.32 0 1 0 20.63.64q0-.32 0-.64v-90.33c0-61.58-23.61-114.24-68.28-152.29-33.8-28.83-80.35-49.25-127.6-56a10.26 10.26 0 0 0 -2.92 0c-47.27 6.75-93.8 27.17-127.66 56-44.66 38.1-68.27 90.71-68.27 152.29v306.06h-2.07a31 31 0 0 0 -30.94 31v38.52a31 31 0 0 0 31 31h2.01v33.7a10.32 10.32 0 0 0 10.32 10.32h99.5a10.32 10.32 0 0 0 0-20.63h-88.5a.69.69 0 0 1 -.69-.69v-22.7h177.47v23.38h-33.26a10.32 10.32 0 0 0 -.64 20.63h308.3a10.32 10.32 0 0 0 10.32-10.32v-198.17a21.35 21.35 0 0 0 -21.32-21.29zm-87.4-34.39v34.39h-111.37v-34.42zm-231.78 55a11.69 11.69 0 1 1 -11.69 11.69 11.69 11.69 0 0 1 11.69-11.69zm5-75.66c-2.24-2.93-5.63-7.5-9.59-13.37a154.1 154.1 0 0 0 119.19 0c-4 5.86-7.33 10.43-9.57 13.36zm-49.66-121.74v-.69h78.44v16a29.38 29.38 0 0 1 -29.35 29.35h-41.19c-4.75-14.32-7.9-29.54-7.9-44.66zm199.46 0c0 15.1-3.15 30.33-7.91 44.71h-41.11a29.38 29.38 0 0 1 -29.35-29.35v-16h78.35v.64zm-99.73-88.72c40.21 0 84.45 27.69 96.52 67.4h-85.51a10.32 10.32 0 0 0 -10.3 10.31v26.36a50 50 0 0 0 50 50h33q-1.68 3.73-3.43 7.31a132.66 132.66 0 0 1 -160.68 0q-1.74-3.56-3.41-7.27h33.11a50 50 0 0 0 50-50v-26.4a10.32 10.32 0 0 0 -10.32-10.32h-85.5c12.07-39.71 56.31-67.39 96.52-67.39zm-209.77 420.23v-38.52a10.33 10.33 0 0 1 10.32-10.32h77a10.33 10.33 0 0 1 10.32 10.32v38.52a10.32 10.32 0 0 1 -9.6 10.28v-22.66a10.32 10.32 0 0 0 -20.63 0v22.66h-6.93v-22.7a10.32 10.32 0 0 0 -20.63 0v22.7h-6.84v-22.7a10.32 10.32 0 0 0 -20.63 0v22.7h-2.06a10.33 10.33 0 0 1 -10.32-10.28zm116.48 10.28a30.8 30.8 0 0 0 1.77-10.32v-38.48a31 31 0 0 0 -30.95-31h-54.29v-119.62h111.47v36.09a32.33 32.33 0 1 0 20.63 0v-36.09h89.37v34.42h-22.7a21.34 21.34 0 0 0 -21.3 21.29v143.71zm358 44h-243.39v-187.71a.69.69 0 0 1 .69-.69h242.1a.69.69 0 0 1 .69.69z"/><path d="m380.35 570a32.33 32.33 0 1 0 32.33 32.33 32.33 32.33 0 0 0 -32.33-32.33zm0 44a11.69 11.69 0 1 1 11.65-11.73s0 .05 0 .08a11.71 11.71 0 0 1 -11.65 11.65z"/><path d="m380.35 471a130.5 130.5 0 0 0 -92.89 38.48 10.32 10.32 0 0 0 14.54 14.52 110.73 110.73 0 0 1 156.6 0 10.32 10.32 0 0 0 14.59-14.59 130.51 130.51 0 0 0 -92.84-38.41z"/><path d="m380.35 504a97.7 97.7 0 0 0 -69.55 28.8 10.32 10.32 0 0 0 14.22 15l.37-.37a77.72 77.72 0 0 1 109.91 0 10.32 10.32 0 1 0 15-14.22l-.37-.37a97.71 97.71 0 0 0 -69.58-28.84z"/></svg>

<svg id="Capa_1" data-name="Capa 1" xmlns="http://www.w3.org/2000/svg" viewBox="0 0 529.6 676.48"><defs><style>.cls-1{fill:#ffe9c4;}.cls-2{fill:#290100;}.cls-3{fill:#020047;}.cls-4{fill:#8e9aa9;opacity:0.25;}.cls-5{fill:#79808a;}.cls-6{fill:#0074bf;}.cls-7{fill:#db6b5e;}.cls-8{fill:#6b737f;}.cls-9{fill:#ffc702;opacity:0.5;}.cls-10{fill:#ff2433;}.cls-11{fill:#bf1b26;opacity:0.67;}.cls-12{fill:#510200;}</style></defs><title>onboarding_icon-07</title><g id="hacker"><circle id="Oval" class="cls-1" cx="237.29" cy="228.19" r="143.06"/><path id="Shape" class="cls-2" d="M237.29,205.18c57.75,0,109.85,24.7,132.09,78a143.06,143.06,0,1,0-264.17,0C127.45,229.88,179.54,205.17,237.29,205.18Z"/><path id="Shape-2" class="cls-3" d="M347.33,316.23H288a39.66,39.66,0,0,1-39.66-39.66h0V250.2h99Z"/><path id="Shape-3" class="cls-4" d="M296.44,250.2l-44,44a39.82,39.82,0,0,0,13,15l59-59h-28Z"/><path id="Shape-4" class="cls-3" d="M127.25,316.23h59.38a39.66,39.66,0,0,0,39.66-39.66h0V250.2h-99Z"/><polygon id="Shape-5" class="cls-4" points="169.89 250.21 127.25 292.85 127.25 316.23 129.08 316.23 195.11 250.21 169.89 250.21"/><path id="Shape-6" class="cls-5" d="M237.29,19.11c-77,11-187.08,66-187.08,198.08V657.37H424.37V217.19C424.37,85.14,314.32,30.12,237.29,19.11Zm-55,374.15s-55-66-55-132c0-55,55-99,110-99s110,44,110,99c0,66-55,132-55,132Z"/><g id="Group"><circle id="Oval-2" class="cls-6" cx="182.27" cy="470.29" r="23.53"/><circle id="Oval-3" class="cls-7" cx="292.31" cy="470.29" r="23.53"/></g><path id="Shape-7" class="cls-8" d="M83.23,349.24c0-132.69,60.22-251.29,154.82-330l-.76-.11c-77,11-187.08,66-187.08,198.08V657.37H213.7A427.87,427.87,0,0,1,83.23,349.24Z"/><path id="Shape-8" class="cls-1" d="M114.87,613.35h-77A20.63,20.63,0,0,1,17.2,592.76V554.2a20.63,20.63,0,0,1,20.63-20.63h77a20.63,20.63,0,0,1,20.67,20.59v38.56A20.63,20.63,0,0,1,114.87,613.35Z"/><path id="Shape-9" class="cls-9" d="M17.2,580.51v12.21a20.63,20.63,0,0,0,20.63,20.63h77a20.63,20.63,0,0,0,20.63-20.63h0V580.51Z"/><path id="Shape-10" class="cls-10" d="M512.4,657.37H248.3V459.29a11,11,0,0,1,11-11H501.4a11,11,0,0,1,11,11h0Z"/><g id="Group-2"><path id="Shape-11" class="cls-11" d="M292.31,448.28h-33a11,11,0,0,0-11,11h0V657.37h33V459.29a11,11,0,0,1,11-11Z"/><circle id="Oval-4" class="cls-10" cx="380.35" cy="602.35" r="23.53"/></g><path id="Shape-12" class="cls-6" d="M248.3,657.37H61.22a11,11,0,0,1-11-11h0v-33H248.3Z"/><path id="Shape-17" d="M380.35,537a64.91,64.91,0,0,0-46.2,19.14,10.32,10.32,0,0,0,14.59,14.59,44.7,44.7,0,0,1,63.22,0h0a10.32,10.32,0,1,0,15-14.22l-.37-.37A64.89,64.89,0,0,0,380.35,537Z"/><path class="cls-12" d="M276.57,172s-47.24-1.4-64.15,22.16-20.52,34-20.52,34,59-33.82,80.08-36,41-3.83,41-3.83Z"/><path class="cls-12" d="M230.76,155.62s-44.63,15.55-52,43.59-7,39.09-7,39.09,47.63-46.89,66.53-56.4,37.22-19.09,37.22-19.09Z"/><path class="cls-12" d="M215.68,160.58S170,172.53,160.36,199.9s-10.13,38.41-10.13,38.41,51.21-42.95,70.81-50.92,38.62-16.07,38.62-16.07Z"/><path class="cls-12" d="M194.07,172s-45.73,11.95-55.32,39.31-10.13,38.41-10.13,38.41,51.21-42.95,70.81-50.92,38.62-16.07,38.62-16.07Z"/><path id="Shape-13" d="M501.4,438H434.68V358.87a10.32,10.32,0,1,0-20.63-.64q0,.32,0,.64v24.07H312.83c16.93-24.62,44.82-72.65,44.82-121.74,0-29.06-13.48-56.74-38-77.95-23-20-53.07-31.41-82.41-31.41s-59.38,11.45-82.41,31.41c-24.47,21.21-37.95,48.89-37.95,77.95,0,49.09,27.89,97.11,44.82,121.74H60.53V217.19C60.53,98,155.41,41.74,237.29,29.54,319.17,41.74,414,98,414,217.19v90.33a10.32,10.32,0,1,0,20.63.64q0-.32,0-.64V217.19c0-61.58-23.61-114.24-68.28-152.29C332.55,36.07,286,15.65,238.75,8.9a10.26,10.26,0,0,0-2.92,0c-47.27,6.75-93.8,27.17-127.66,56C63.51,103,39.9,155.61,39.9,217.19V523.25H37.83a31,31,0,0,0-30.94,31v38.52a31,31,0,0,0,31,31H39.9v33.7a10.32,10.32,0,0,0,10.32,10.32h99.5a10.32,10.32,0,0,0,0-20.63H61.22a.69.69,0,0,1-.69-.69h0v-22.7H238v23.38H204.74a10.32,10.32,0,0,0-.64,20.63H512.4a10.32,10.32,0,0,0,10.32-10.32h0V459.29A21.35,21.35,0,0,0,501.4,438ZM414,403.61V438H302.63V403.58Zm-231.78,55a11.69,11.69,0,1,1-11.69,11.69,11.69,11.69,0,0,1,11.69-11.69Zm5-75.66c-2.24-2.93-5.63-7.5-9.59-13.37a154.1,154.1,0,0,0,119.19,0c-4,5.86-7.33,10.43-9.57,13.36ZM137.56,261.21v-.69H216v16a29.38,29.38,0,0,1-29.35,29.35H145.46C140.71,291.55,137.56,276.33,137.56,261.21Zm199.46,0c0,15.1-3.15,30.33-7.91,44.71H288a29.38,29.38,0,0,1-29.35-29.35v-16H337v.64Zm-99.73-88.72c40.21,0,84.45,27.69,96.52,67.4H248.3A10.32,10.32,0,0,0,238,250.2v26.36a50,50,0,0,0,50,50h33q-1.68,3.73-3.43,7.31a132.66,132.66,0,0,1-160.68,0q-1.74-3.56-3.41-7.27h33.11a50,50,0,0,0,50-50h0V250.2a10.32,10.32,0,0,0-10.32-10.32h-85.5c12.07-39.71,56.31-67.39,96.52-67.39ZM27.52,592.72V554.2a10.33,10.33,0,0,1,10.32-10.32h77a10.33,10.33,0,0,1,10.32,10.32v38.52a10.32,10.32,0,0,1-9.6,10.28V580.34a10.32,10.32,0,0,0-20.63,0V603H88V580.3a10.32,10.32,0,0,0-20.63,0V603H60.53V580.3a10.32,10.32,0,0,0-20.63,0V603H37.84A10.33,10.33,0,0,1,27.52,592.72ZM144,603a30.8,30.8,0,0,0,1.77-10.32V554.2a31,31,0,0,0-30.95-31H60.53V403.58H172v36.09a32.33,32.33,0,1,0,20.63,0V403.58H282V438H259.3A21.34,21.34,0,0,0,238,459.29V603Zm358,44H258.61V459.29a.69.69,0,0,1,.69-.69H501.4a.69.69,0,0,1,.69.69h0Z"/><path id="Shape-14" d="M380.35,570a32.33,32.33,0,1,0,32.33,32.33A32.33,32.33,0,0,0,380.35,570Zm0,44A11.69,11.69,0,1,1,392,602.27s0,.05,0,.08A11.71,11.71,0,0,1,380.35,614Z"/><path id="Shape-15" d="M380.35,471a130.5,130.5,0,0,0-92.89,38.48A10.32,10.32,0,0,0,302,524a110.73,110.73,0,0,1,156.6,0h0a10.32,10.32,0,0,0,14.59-14.59A130.51,130.51,0,0,0,380.35,471Z"/><path id="Shape-16" d="M380.35,504a97.7,97.7,0,0,0-69.55,28.8,10.32,10.32,0,0,0,14.22,15l.37-.37a77.72,77.72,0,0,1,109.91,0,10.32,10.32,0,1,0,15-14.22l-.37-.37A97.71,97.71,0,0,0,380.35,504Z"/></g></svg>
